X:1
T:Partition sans titre
C:Compositeur / Arrangeur
L:1/8
M:4/4
I:linebreak $
K:G
V:1 treble nm="Violon" snm="Vln."
V:1
"Em" EEB,E GGEG | BBGB e2 ef |"C" gfeg fedf | edB^c"D" dBAF |"Em" EEB,E GGEG | BBGB e2 ef | %6
"C" gfeg fedf |1"D" eagf"Em" e2 ^D2 :|2"D" eagf"Em" e2 ef |:"Em" geBe geBe |"C" gece gece | %11
"D" afdB ABdf | afdB A2 ef |"Em" geBe geBe |"C" gece gece |"D" afdB ABdf |1 afdf"Em" e2 ef :|2 %17
 afdf"Em" e2 ^D2 |] %18
